X: 43583
T: Young Prince Of Ulster, The
R: polka
M: 2/4
K: Gmajor
|:G>A Bd|~c2 BG|~c2 BG|A>G FD|
G>A Bd|~c2 BA/B/|cB AF|1 G2 GD:|2 GB de/f/||
|:gd fd|ed de/f/|gf ed|c2 de/f/|
ga/g/ fd|ed BA/B/|cB AF|1 GB de/f/:|2 G2 GD||

